resources/svg/database-o.svg

<svg xmlns="http://www.w3.org/2000/svg" viewBox="0 0 15 15" fill="none"><path d="M14.5 2.49866C14.5 3.60194 11.366 4.49731 7.5 4.49731C3.634 4.49731 0.5 3.60194 0.5 2.49866M14.5 2.49866C14.5 1.39538 11.366 0.5 7.5 0.5C3.634 0.5 0.5 1.39538 0.5 2.49866M14.5 2.49866V12.4922C14.5 13.5955 11.366 14.4908 7.5 14.4908C3.634 14.4908 0.5 13.5956 0.5 12.4923V2.49866M14.5 7.49536C14.5 8.59864 11.366 9.49414 7.5 9.49414C3.634 9.49414 0.5 8.59864 0.5 7.49536" stroke="black" stroke-linecap="square"/></svg>

<svg xmlns="http://www.w3.org/2000/svg" viewBox="0 0 15 15" fill="none"><path d="M14.5 2.499c0 1.103-3.134 1.998-7 1.998S.5 3.602.5 2.5m14 0c0-1.105-3.134-2-7-2s-7 .895-7 1.999m14 0v9.993c0 1.103-3.134 1.999-7 1.999s-7-.895-7-1.999V2.5m14 4.996c0 1.104-3.134 2-7 2s-7-.896-7-2" stroke="currentColor" stroke-linecap="square"/></svg>
